flaticon/army-badges/medal-17.svg

<svg xmlns="http://www.w3.org/2000/svg" width="32" height="32" viewBox="0 0 24 24">
    <path d="M 14 13.996094 L 14 13.867188 L 16.679688 11.480469 C 16.761719 11.441406 16.800781 11.320312 16.800781 11.199219 L 16.800781 0.398438 C 16.800781 0.160156 16.640625 0 16.398438 0 L 7.601562 0 C 7.359375 0 7.199219 0.160156 7.199219 0.398438 L 7.199219 11.199219 C 7.199219 11.320312 7.238281 11.441406 7.359375 11.558594 L 10 13.910156 L 10 13.996094 C 8.117188 14.777344 6.800781 16.628906 6.800781 18.800781 C 6.800781 21.679688 9.121094 24 12 24 C 14.878906 24 17.199219 21.679688 17.199219 18.800781 C 17.199219 16.628906 15.882812 14.777344 14 13.996094 Z M 16 11 L 14 12.785156 L 14 0.800781 L 16 0.800781 Z M 13.199219 0.800781 L 13.199219 13.5 L 13 13.679688 C 12.898438 13.667969 12.796875 13.65625 12.699219 13.648438 C 12.625 13.636719 12.550781 13.628906 12.472656 13.621094 C 12.457031 13.621094 12.441406 13.617188 12.421875 13.617188 C 12.402344 13.617188 12.382812 13.613281 12.367188 13.613281 C 12.335938 13.609375 12.304688 13.609375 12.273438 13.605469 C 12.261719 13.605469 12.253906 13.605469 12.246094 13.605469 C 12.210938 13.605469 12.171875 13.601562 12.136719 13.601562 C 12.089844 13.601562 12.046875 13.601562 12 13.601562 C 11.648438 13.601562 11.308594 13.632812 10.976562 13.699219 L 10.800781 13.542969 L 10.800781 0.800781 Z M 8 11.039062 L 8 0.800781 L 10 0.800781 L 10 12.828125 Z M 12 23.199219 C 9.558594 23.199219 7.601562 21.199219 7.601562 18.800781 C 7.601562 16.863281 8.875 15.191406 10.648438 14.613281 C 10.671875 14.613281 10.695312 14.609375 10.71875 14.601562 C 10.757812 14.589844 10.796875 14.578125 10.839844 14.570312 C 10.890625 14.578125 10.945312 14.578125 11 14.558594 C 11.71875 14.398438 12.359375 14.398438 13.039062 14.558594 C 13.039062 14.558594 13.0625 14.558594 13.089844 14.558594 C 13.140625 14.574219 13.191406 14.585938 13.238281 14.601562 C 13.265625 14.601562 13.292969 14.601562 13.320312 14.601562 C 15.109375 15.15625 16.398438 16.820312 16.398438 18.800781 C 16.398438 21.238281 14.441406 23.199219 12 23.199219 Z M 12 23.199219"/>
    <path d="M 15.441406 17.28125 C 15.320312 17.199219 15.199219 17.160156 15.078125 17.199219 L 15 17.238281 C 14.398438 17.398438 13.800781 17.480469 13.238281 17.558594 C 13.28125 17 13.398438 16.441406 13.558594 15.800781 L 13.601562 15.71875 C 13.601562 15.601562 13.601562 15.480469 13.519531 15.359375 C 13.441406 15.238281 13.320312 15.199219 13.199219 15.199219 L 10.800781 15.199219 C 10.679688 15.199219 10.558594 15.28125 10.480469 15.359375 C 10.398438 15.480469 10.398438 15.601562 10.398438 15.71875 L 10.441406 15.800781 C 10.601562 16.398438 10.679688 17 10.761719 17.558594 C 10.398438 17.519531 10 17.441406 9.640625 17.359375 L 8.878906 17.199219 C 8.761719 17.160156 8.640625 17.199219 8.558594 17.28125 C 8.441406 17.359375 8.398438 17.480469 8.398438 17.601562 L 8.398438 20 C 8.398438 20.121094 8.441406 20.238281 8.558594 20.320312 C 8.640625 20.398438 8.761719 20.441406 8.878906 20.398438 L 9.679688 20.28125 C 10 20.199219 10.398438 20.121094 10.761719 20.078125 C 10.679688 20.441406 10.640625 20.839844 10.558594 21.160156 L 10.398438 21.921875 C 10.398438 22.039062 10.398438 22.121094 10.480469 22.238281 C 10.558594 22.359375 10.679688 22.398438 10.800781 22.398438 L 13.199219 22.398438 C 13.320312 22.398438 13.441406 22.359375 13.519531 22.238281 C 13.601562 22.160156 13.640625 22.039062 13.601562 21.921875 L 13.441406 21.160156 C 13.359375 20.800781 13.28125 20.398438 13.238281 20.039062 C 13.800781 20.078125 14.398438 20.199219 15 20.359375 L 15.078125 20.398438 C 15.199219 20.441406 15.359375 20.398438 15.441406 20.320312 C 15.558594 20.238281 15.601562 20.121094 15.601562 20 L 15.601562 17.601562 C 15.601562 17.480469 15.558594 17.359375 15.441406 17.28125 Z M 14.839844 19.480469 C 14.160156 19.320312 13.480469 19.238281 12.878906 19.199219 C 12.761719 19.199219 12.640625 19.238281 12.558594 19.320312 C 12.480469 19.398438 12.441406 19.519531 12.441406 19.640625 C 12.480469 20.199219 12.558594 20.800781 12.679688 21.320312 L 12.71875 21.601562 L 11.28125 21.601562 L 11.359375 21.320312 C 11.441406 20.800781 11.558594 20.199219 11.601562 19.640625 C 11.601562 19.519531 11.558594 19.398438 11.480469 19.320312 C 11.398438 19.238281 11.28125 19.199219 11.160156 19.199219 C 10.601562 19.238281 10 19.359375 9.480469 19.519531 L 9.199219 19.558594 L 9.199219 18.121094 L 9.441406 18.199219 C 10 18.28125 10.558594 18.398438 11.121094 18.441406 C 11.238281 18.441406 11.359375 18.398438 11.441406 18.320312 C 11.519531 18.238281 11.558594 18.121094 11.558594 18 C 11.519531 17.398438 11.441406 16.71875 11.28125 16.039062 L 12.679688 16.039062 C 12.519531 16.71875 12.441406 17.398438 12.398438 18 C 12.398438 18.121094 12.480469 18.160156 12.558594 18.238281 C 12.640625 18.320312 12.761719 18.359375 12.878906 18.359375 C 13.480469 18.320312 14.160156 18.238281 14.839844 18.078125 Z M 14.839844 19.480469"/>
</svg>

<svg xmlns="http://www.w3.org/2000/svg" width="32" height="32" viewBox="0 0 24 24">
    <path d="M14 13.996v-.129l2.68-2.387c.082-.039.12-.16.12-.28V.397C16.8.16 16.64 0 16.399 0H7.602c-.243 0-.403.16-.403.398V11.2c0 .121.04.242.16.36L10 13.91v.086a5.188 5.188 0 0 0-3.2 4.805A5.19 5.19 0 0 0 12 24a5.19 5.19 0 0 0 5.2-5.2 5.188 5.188 0 0 0-3.2-4.804zM16 11l-2 1.785V.801h2zM13.2.8v12.7l-.2.18a8.753 8.753 0 0 0-.3-.032 3.994 3.994 0 0 0-.227-.027c-.016 0-.032-.004-.051-.004-.02 0-.04-.004-.055-.004-.031-.004-.062-.004-.094-.008h-.027l-.11-.003H12c-.352 0-.691.03-1.023.097l-.176-.156V.801zM8 11.04V.8h2v12.028zm4 12.16c-2.441 0-4.398-2-4.398-4.4a4.42 4.42 0 0 1 3.046-4.187.221.221 0 0 0 .07-.011c.04-.012.079-.024.122-.032.05.008.105.008.16-.011.719-.16 1.36-.16 2.04 0h.05c.05.015.101.027.148.043h.082a4.381 4.381 0 0 1 3.078 4.199A4.385 4.385 0 0 1 12 23.199zm0 0"/>
    <path d="M15.441 17.281c-.12-.082-.242-.12-.363-.082l-.078.04c-.602.16-1.2.241-1.762.32.043-.559.16-1.118.32-1.758l.044-.082c0-.117 0-.239-.082-.36-.079-.12-.2-.16-.32-.16h-2.4c-.12 0-.241.082-.32.16-.082.121-.082.243-.082.36l.043.082c.16.597.239 1.199.32 1.758-.363-.04-.761-.118-1.12-.2l-.762-.16a.313.313 0 0 0-.32.082.368.368 0 0 0-.16.32V20c0 .121.042.238.16.32.082.078.203.121.32.078l.8-.117c.321-.082.72-.16 1.083-.203-.082.363-.121.762-.203 1.082l-.16.762c0 .117 0 .2.081.316.079.121.2.16.32.16h2.4c.12 0 .241-.039.32-.16.082-.078.12-.199.082-.316l-.16-.762c-.083-.36-.16-.762-.204-1.12.563.038 1.16.16 1.762.32l.078.038c.121.043.281 0 .363-.078.118-.082.16-.199.16-.32v-2.398a.368.368 0 0 0-.16-.32zm-.601 2.2a12.03 12.03 0 0 0-1.961-.282.455.455 0 0 0-.32.121.456.456 0 0 0-.118.32c.04.56.118 1.16.239 1.68l.039.282H11.28l.078-.282c.082-.52.2-1.12.243-1.68a.46.46 0 0 0-.122-.32.449.449 0 0 0-.32-.12c-.558.038-1.16.16-1.68.32l-.28.039V18.12l.241.078c.559.082 1.118.2 1.68.242a.473.473 0 0 0 .32-.12.463.463 0 0 0 .118-.321 12.004 12.004 0 0 0-.278-1.96h1.399c-.16.679-.239 1.358-.282 1.96 0 .121.082.16.16.238a.455.455 0 0 0 .32.121c.602-.039 1.282-.12 1.962-.28zm0 0"/>
</svg>
